ui_kit/lib/assets/icons/record.svg

<svg width="24" height="24" viewBox="0 0 24 24" fill="none" xmlns="http://www.w3.org/2000/svg">
<path d="M11.9917 20.5898C16.6982 20.5898 20.583 16.7051 20.583 12.0068C20.583 7.30859 16.6899 3.42383 11.9834 3.42383C7.28516 3.42383 3.40869 7.30859 3.40869 12.0068C3.40869 16.7051 7.29346 20.5898 11.9917 20.5898ZM11.9917 18.8799C8.18164 18.8799 5.13525 15.8169 5.13525 12.0068C5.13525 8.19678 8.18164 5.14209 11.9834 5.14209C15.7935 5.14209 18.8564 8.19678 18.8647 12.0068C18.873 15.8169 15.8018 18.8799 11.9917 18.8799ZM12 15.2607C13.8013 15.2607 15.2539 13.8081 15.2539 11.9985C15.2539 10.2056 13.8013 8.74463 12 8.74463C10.1904 8.74463 8.73779 10.2056 8.73779 11.9985C8.73779 13.8081 10.1904 15.2607 12 15.2607Z" fill="white"/>
</svg>

<svg xmlns="http://www.w3.org/2000/svg" width="24" height="24" fill="none" viewBox="0 0 24 24"><path fill="#fff" d="M11.992 20.59c4.706 0 8.591-3.885 8.591-8.583s-3.893-8.583-8.6-8.583c-4.698 0-8.574 3.885-8.574 8.583s3.884 8.583 8.583 8.583Zm0-1.71a6.84 6.84 0 0 1-6.857-6.873 6.832 6.832 0 0 1 6.848-6.865 6.86 6.86 0 0 1 6.882 6.865 6.85 6.85 0 0 1-6.873 6.873ZM12 15.26A3.25 3.25 0 0 0 15.254 12 3.254 3.254 0 0 0 12 8.745a3.256 3.256 0 0 0-3.262 3.254A3.252 3.252 0 0 0 12 15.26Z"/></svg>
